X:1
T:James Gibb editions
T:James Gibb editions
T:James Gibb editions
T:To Thee, O Comforter divine - Barnby
%%score [ ( 1 2 ) ( 3 4 ) ]
L:1/8
Q:1/4=84
M:4/4
K:G
V:1 treble nm="Midi_74"
V:2 treble 
V:3 bass nm="Midi_74"
V:4 bass 
V:1
"^Frances Ridley Havergal\n(1836-79)""^88. 6""^To Thee, O Comforter divine""^Joseph Barnby\n(1838-96)"!mf! B2 | %1
w: To|
 d2 e2 d2 B2 | A2 A2 G2 || G2 | B2 c2 B2 G2 | E3 F F4 ||[M:4/4]!ff! G2 A2 (B2 c2- | c2 B2 A2) G2 | %8
w: Thee, O Com- for-|ter di- vine,|For|all thy grace and|power be\-~~ nign,|Sing we Al\- *|* * * le-|
 A4 G4- | G2 || G4 G4 |] %11
w: lu- ia.||A- men.|
V:2
 G2 | G2 G2 D2 G2 | G2 F2 G2 || G2 | E2 E2 ^D2 B,2 | B,2 A,2 B,4 ||[M:4/4] E2 [D=F]2 [DF]2 [CE]2- | %7
 [CE]2 [DG]2 [CF]2 [B,G]2- | [CDG]2 [CDF]2 B,4- | B,2 || E4 D4 |] %11
V:3
 E2 | B,2 B,2 A,2 B,C | D3 C B,2 || B,2 | G,2 A,2 F,2 G,2 | G,2 E,2 ^D,4 || %6
[M:4/4] G,2 A,2 (B,2"^2 To Thee, whose faithful love had place\nIn God's great covenant of grace,\nSing we Alleluia! \n\n3 To Thee, whose faithful power doth heal,\nEnlighten, sanctify, and seal,\nSing we Alleluia!\n\n4 To Thee, by Jesus Christ sent down,\nOf all his gifts the sum and crown,\nSing we Alleluia!" C2- | %7
 C2 B,2 A,2) G,2 | A,4 G,4- | G,2 || C4 B,4 |] %11
V:4
 G,2 | G,2 E,2 G,2 G,2 | D,2 D,2 G,2 || E,2 | E,2 A,,2 B,,2 E,2 | C,2 C,2 B,,4 || %6
[M:4/4] [E,B,]2 D,2 G,2 C,2- | C,2 G,,2 D,2 E,2 | D,4 G,,4- | G,,2 || C,4 G,,4 |] %11

